!!!OTL: Das Daennerl im Thal.
!!!OTL-incipit: BIN DAS SCHOEN DAENNERL IM THAL
!!!ARE: Europa, Mitteleuropa, Deutschland, Sachsen
!!!SCT: Z1150
!!!TXL: @@DE
!!!YEM: Copyright 1995, estate of Helmut Schaffrath.
**kern	**text
*ICvox	*
*M3/4	*
*k[b-e-a-d-]	*
*A-:	*
=1	=1
!LO:TX:a:t=Aus Sachſen.	!
{8e-L	Bin
8a-J	.
8a-/L	das
8ccJ	.
8ccL	ſchön
8ee-J	.
=2	=2
4ee-	Dän-
8b-	-nerl
8cc	im
4a-}	Thal,
=3	=3
{8e-L	ſchleuß
8b-J	.
2b-	Fe-
=4	=4
2cc	-dern;
4r}	.
=5	=5
{8e-L	da
8a-J	.
8a-	kommen
8cc	.
8ccL	die
8ee-J	.
=6	=6
4ee-	Jä-
8b-	-ger-
8cc	-burſch
4a-}	all'
=7	=7
{8e-	wol-
8b-	-len's
2b-	ler-
=8	=8
2cc	-nen;
4r}	.
=9	=9
{4b-	geht
8b-L	nur,
8a-J	.
8b-	ihr
8cc	Ge-
=10	=10
4b-	-ſel-
4ee-	-len!
4r}	.
=11	=11
{4b-	Jhr
8b-L	könnt
8a-J	euch
8b-	nicht
8cc	an-
=12	=12
4a-	-ſtel-
4e-	-len,
8r}	.
{8a-	ihr
=13	=13
4.a-	könnt
8a-	euch
8a-	nicht
8a-	an-
=14	=14
4g	-ſtel-
2b-/;}	-len;
=15	=15
{8e-L	ich
8a-J	.
8a-	bin
8cc	das
8ccL	ſchön
8ee-J	.
=16	=16
4dd-	Dän-
8ff	-nerl
8aa-	im
4ee-}	Thal
=17	=17
{8e-L	und
8a-J	.
8a-	bleib
8cc	das
8ccL	ſchön
8ee-J	.
=18	=18
8ee-	Dännerl
8dd-	.
8b-	al-
8cc	-le-
4a-}	-mal!
==	==
!!!AGN: Liebes - Lied
!!!ONB: ESAC (Essen Associative Code) Database: ZUCCAL
!!!AMT: simple triple
!!!AIN: vox
!!!EED: Helmut Schaffrath
!!!EEV: 1.0
!!!GTL: V. Lieder der Minne.
!!!URL-scan: https://www.digitale-sammlungen.de/de/view/bsb11160573?page=329
!!!ENC: Anna Maria Matuszewska
!!!EEV: 2025/02/05
*-	*-
